!!!OTL: It Was a Mouse
!!!ONM: 89.
**kern
*clefG2
*k[b-]
*F:
*M2/4
*MM80
{8c
=1
8.f
16f
8.f
16c
=2
8.e
16e
8.e
16c
=3
4f
8r}
{8a
=4
8.cc
16cc
8.cc
16a
=5
8.b-
16b-
8.b-}
{16g
=6
8.a
16a
8.a
16f
=7
8.g
16e
8.c}
=||
{16c
=8
8.c
32c
32c
8.c
16c
=9
8.f
16g
4a}
=10
{4g
8.f
16e
=11
4.f}
==
*-
!!!CNT: Folksongs of Maritime Canada
!!!MRD: 1928///-1932///
!!!OCL: Helen Creighton
!!!YOR: Songs and Ballads from Nova Scotia
!!!PPR: J.M. Dent & Sons, Limited
!!!PPP: Toronto, Canada
!!!PDT: 1932///
!!!reprint: Dover Publications, 1992: ISBN 0-486-21703-5
!!!ENC1: Craig Stuart Sapp (music and bibliographic data)                       
!!!ENC2: Marcus Pearce (phrase markings and key designations)                   
!!!ENC3: Darrell Conklin (phrase markings and key designations)   
!!!END: 2002/04/10/
!!!EEV: 2004/06/05
!!!MPN: Mr. Richard Hartlan
!!!PPG: 194
!!!EFL: 90/152
!!!ARE: Canada; Nova Scotia
!!!verses: 10
!!!VTS: 2892698917
